!! 00000] TT[WS
!!!OTL: Laihama shang shu
!!!ARE: Asia, China,ÿShanxi Hequ
!! Ethnic Group: Han
!! WI, 19 (2)
!!!SCT: J0022
!!!YEM: Copyright 1995, estate of Helmut Schaffrath.
**kern
*ICvox
*Ivox
*M2/4
*k[f#c#]
*D:
{16b
16a
16b
16dd
4e
=1
16b
16a
16b
16dd
4ee
=2
16dd
8b
16a
8a
16a
16b
=3
2ee}
=4
{16b
16a
16b
16dd
4e
=5
16b
16a
16b
16dd
4ee
=6
16dd
8b
16a
8a
16a
16b
=7
2a}
==
!!!AGN: Shange, Shanqu. Qingge
!!!ONB: ESAC (Essen Associative Code) Database: CHINA
!!!AMT: simple duple
!!!AIN: vox
!!!EED: Helmut Schaffrath
!!!EEV: 1.0
*-
